X:1
T:Dido, Fido
M:4/4
L:1/8
K:G
 G2 A2| B2 AA GG GF| E2 DC D2 DD| DG GE D2 EF| G4| z2 A2| B2 AA GD z D|\
 EF GE DB, z D| EG GE DD EF| G2| D2 G2 A2| B2 B2 A2 A2| D2 DC B,2 z2|\
 D2 FE D2 EF| G2 z2 G2 A2| B2 AG GD GF| EF GE DB, z2| D2 F3/2 E/2 DD EF|\
 G4||
